images/icon_service_download.svg

<svg width="63" height="62" viewBox="0 0 63 62" fill="none" xmlns="http://www.w3.org/2000/svg">
<g clip-path="url(#clip0_54_735)">
<path d="M32.5696 12.9167H54.7501C55.4352 12.9167 56.0923 13.1888 56.5768 13.6733C57.0612 14.1578 57.3334 14.8149 57.3334 15.5V51.6667C57.3334 52.3518 57.0612 53.0089 56.5768 53.4934C56.0923 53.9778 55.4352 54.25 54.7501 54.25H8.25008C7.56494 54.25 6.90786 53.9778 6.42339 53.4934C5.93892 53.0089 5.66675 52.3518 5.66675 51.6667V10.3333C5.66675 9.64819 5.93892 8.99111 6.42339 8.50664C6.90786 8.02217 7.56494 7.75 8.25008 7.75H27.4029L32.5696 12.9167ZM10.8334 12.9167V49.0833H52.1668V18.0833H30.4306L25.2639 12.9167H10.8334ZM34.0834 33.5833H41.8334L31.5001 43.9167L21.1667 33.5833H28.9167V23.25H34.0834V33.5833Z" fill="#0F3D5F"/>
</g>
<defs>
<clipPath id="clip0_54_735">
<rect width="62" height="62" fill="white" transform="translate(0.5)"/>
</clipPath>
</defs>
</svg>

<?xml version="1.0" encoding="UTF-8"?>
<svg id="_圖層_1" data-name="圖層_1" xmlns="http://www.w3.org/2000/svg" xmlns:xlink="http://www.w3.org/1999/xlink" version="1.1" viewBox="0 0 63 62">
  <!-- Generator: Adobe Illustrator 29.4.0, SVG Export Plug-In . SVG Version: 2.1.0 Build 152)  -->
  <defs>
    <style>
      .st0 {
        fill: none;
      }

      .st1 {
        fill: #a2231c;
      }

      .st2 {
        clip-path: url(#clippath);
      }
    </style>
    <clipPath id="clippath">
      <rect class="st0" x=".5" width="62" height="62"/>
    </clipPath>
  </defs>
  <g class="st2">
    <path class="st1" d="M32.6,12.9h22.2c.7,0,1.3.3,1.8.8.5.5.8,1.1.8,1.8v36.2c0,.7-.3,1.3-.8,1.8-.5.5-1.1.8-1.8.8H8.3c-.7,0-1.3-.3-1.8-.8-.5-.5-.8-1.1-.8-1.8V10.3c0-.7.3-1.3.8-1.8.5-.5,1.1-.8,1.8-.8h19.2l5.2,5.2ZM10.8,12.9v36.2h41.3v-31h-21.7l-5.2-5.2h-14.4ZM34.1,33.6h7.8l-10.3,10.3-10.3-10.3h7.8v-10.3h5.2v10.3Z"/>
  </g>
</svg>
